X: 3083
T: BALLOCHMYLE BRIG
C: A. Mc Alpine
Q:"Strathspey."
R: Strathspey.
%R:strathspey
B: James Kerr "Merry Melodies" v.3 p.11 #83
Z: 2016 John Chambers <jc:trillian.mit.edu>
M: C
L: 1/8
K: A
|:\
vE2-E>uF E<CC<E | A<c B>A F<A E<C |\
F2-F>(G F)>E C<E |[1 F<A G<B A2(A<c) :|[2 F<A G<B A2A,2 |]\
c<e d>c B>A G<B | (3Ace !1!a>!3!c' a>!0!e c<A |
!1!d>!3!f!2!b>c' d'>c'b>a | !2!g>ag>f (3efe (3dcB |\
ve<c va>ue vd>vcuB>uA | vf<d vb>ua vg>veud>uB |\
e<c a>e f>d b>a | (3gfe (3dcB A2(A<c) |]

%%sep 1 1 500
%%sep 1 1 500

